X:1
T: Allemand						
M: 2/4
B: James Campbell's Collection 1798
Z: source from Highland Music Trust, chords by Gary Whaley
L: 1/8
K:Bb
f/e/ [|: "Bb" dTd/e/ fB | "F" cTc/d/ "Eb"ed | "Gm" ge "C" cB | "F" A/B/c/A/ F(f/e/) | 
|"Bb" dTd/e/ fB | "F" cTc/d/ "C7"eg |"F" b/a/g/f/ "C7" a/g/f/=e/ | "F" f3  :|]
f [|: "G/B" fg _ag | (ff/g/) _ag | fe dc | "Gmj" gG !fermata!G(F/E/) |
|"Bb" D(D/F/) BD | "F/A" Cc "Bb"e"Bb/C"d | "Eb"cB {d}"Eb/F"cB/A/ |"Bb" B3 :|]